svg/weather/snowstorm_2_line.svg

<?xml version="1.0" encoding="UTF-8"?>
<svg width="24px" height="24px" viewBox="0 0 24 24" version="1.1" xmlns="http://www.w3.org/2000/svg" xmlns:xlink="http://www.w3.org/1999/xlink">
    <title>snowstorm_line</title>
    <g id="Icon" stroke="none" stroke-width="1" fill="none" fill-rule="evenodd">
        <g id="Weather" transform="translate(-625.000000, -192.000000)" fill-rule="nonzero">
            <g id="snowstorm_line" transform="translate(625.000000, 192.000000)">
                <path d="M24,0 L24,24 L0,24 L0,0 L24,0 Z M12.5935,23.2578 L12.5819,23.2595 L12.5109,23.295 L12.4919,23.2987 L12.4767,23.295 L12.4057,23.2595 C12.3958,23.2564 12.387,23.259 12.3821,23.2649 L12.378,23.2758 L12.3609,23.7031 L12.3659,23.7235 L12.3769,23.7357 L12.4805,23.8097 L12.4953,23.8136 L12.5071,23.8097 L12.6107,23.7357 L12.6233,23.7197 L12.6267,23.7031 L12.6096,23.2758 C12.6076,23.2657 12.601,23.2593 12.5935,23.2578 Z M12.8584,23.1453 L12.8445,23.1473 L12.6598,23.2397 L12.6499,23.2499 L12.6472,23.2611 L12.6651,23.6906 L12.6699,23.7034 L12.6784,23.7105 L12.8793,23.8032 C12.8914,23.8069 12.9022,23.803 12.9078,23.7952 L12.9118,23.7812 L12.8777,23.1665 C12.8753,23.1546 12.8674,23.147 12.8584,23.1453 Z M12.143,23.1473 C12.1332,23.1424 12.1222,23.1453 12.1156,23.1526 L12.1099,23.1665 L12.0758,23.7812 C12.0751,23.7927 12.0828,23.8019 12.0926,23.8046 L12.1083,23.8032 L12.3092,23.7105 L12.3186,23.7024 L12.3225,23.6906 L12.3404,23.2611 L12.3372,23.2485 L12.3278,23.2397 L12.143,23.1473 Z" id="MingCute"></path>
                <path d="M8.64656,12.7323 L9.00011,13.0859 L9.35367,12.7323 C9.74419,12.3418 10.3774,12.3418 10.7679,12.7323 C11.1584,13.1229 11.1584,13.756 10.7679,14.1466 L10.4143,14.5001 L10.7679,14.8537 C11.1584,15.2442 11.1584,15.8774 10.7679,16.2679 C10.3774,16.6584 9.74419,16.6584 9.35367,16.2679 L9.00011,15.9143 L8.64656,16.2679 C8.25604,16.6584 7.62287,16.6584 7.23235,16.2679 C6.84182,15.8774 6.84182,15.2442 7.23235,14.8537 L7.5859,14.5001 L7.23235,14.1466 C6.84182,13.756 6.84182,13.1229 7.23235,12.7323 C7.62287,12.3418 8.25604,12.3418 8.64656,12.7323 Z M14.6466,12.7323 L15.0001,13.0859 L15.3537,12.7323 C15.7442,12.3418 16.3774,12.3418 16.7679,12.7323 C17.1584,13.1229 17.1584,13.756 16.7679,14.1466 L16.4143,14.5001 L16.7679,14.8537 C17.1584,15.2442 17.1584,15.8774 16.7679,16.2679 C16.3774,16.6584 15.7442,16.6584 15.3537,16.2679 L15.0001,15.9143 L14.6466,16.2679 C14.256,16.6584 13.6229,16.6584 13.2323,16.2679 C12.8418,15.8774 12.8418,15.2442 13.2323,14.8537 L13.5859,14.5001 L13.2323,14.1466 C12.8418,13.756 12.8418,13.1229 13.2323,12.7323 C13.6229,12.3418 14.256,12.3418 14.6466,12.7323 Z M11.5,2 C14.2856,2 16.66,3.75154 17.5856,6.21198 C20.13,6.90766 22,9.23462 22,12 C22,13.3497 21.553,14.5978 20.7996,15.6007 C20.4678,16.0422 19.841,16.1312 19.3994,15.7995 C18.9579,15.4677 18.8689,14.8409 19.2006,14.3993 C19.7028,13.7309 20,12.9016 20,12 C20,10.0145 18.5524,8.36524 16.6552,8.05324 C16.2654,7.98914 15.9477,7.7033 15.8441,7.32051 C15.326,5.40663 13.576,4 11.5,4 C9.01472,4 7,6.01472 7,8.5 C7,8.66909 7.00928,8.83564 7.02729,8.99923 C7.08294,9.50471 6.75509,9.9678 6.26851,10.0896 C4.96468,10.4159 4,11.5965 4,13 C4,13.4698 4.10731673,13.9122694 4.29834764,14.3063749 L4.40073,14.4993 C4.67728,14.9773 4.51392,15.5891 4.03585,15.8656 C3.55779,16.1421 2.94607,15.9788 2.66952,15.5007 C2.24351,14.7643 2,13.9091 2,13 C2,10.9486 3.23468,9.18749 5.00053,8.41614 C5.04543,4.86494 7.93814,2 11.5,2 Z M8.76788,18.2323 C9.1584,18.6229 9.1584,19.256 8.76788,19.6466 L8.41433,20.0001 L8.76788,20.3537 C9.1584,20.7442 9.1584,21.3774 8.76788,21.7679 C8.37736,22.1584 7.74419,22.1584 7.35367,21.7679 L7.00011,21.4143 L6.64656,21.7679 C6.25604,22.1584 5.62287,22.1584 5.23235,21.7679 C4.84182,21.3774 4.84182,20.7442 5.23235,20.3537 L5.5859,20.0001 L5.23235,19.6466 C4.84182,19.256 4.84182,18.6229 5.23235,18.2323 C5.62287,17.8418 6.25604,17.8418 6.64656,18.2323 L7.00011,18.5859 L7.35367,18.2323 C7.74419,17.8418 8.37736,17.8418 8.76788,18.2323 Z M14.7679,18.2323 C15.1584,18.6229 15.1584,19.256 14.7679,19.6466 L14.4143,20.0001 L14.7679,20.3537 C15.1584,20.7442 15.1584,21.3774 14.7679,21.7679 C14.3774,22.1584 13.7442,22.1584 13.3537,21.7679 L13.0001,21.4143 L12.6466,21.7679 C12.256,22.1584 11.6229,22.1584 11.2323,21.7679 C10.8418,21.3774 10.8418,20.7442 11.2323,20.3537 L11.5859,20.0001 L11.2323,19.6466 C10.8418,19.256 10.8418,18.6229 11.2323,18.2323 C11.6229,17.8418 12.256,17.8418 12.6466,18.2323 L13.0001,18.5859 L13.3537,18.2323 C13.7442,17.8418 14.3774,17.8418 14.7679,18.2323 Z" id="形状" fill="#09244B"></path>
            </g>
        </g>
    </g>
</svg>

<svg xmlns="http://www.w3.org/2000/svg" width="24" height="24"><g fill="none" fill-rule="nonzero"><path d="M24 0v24H0V0h24ZM12.594 23.258l-.012.002-.071.035-.02.004-.014-.004-.071-.036c-.01-.003-.019 0-.024.006l-.004.01-.017.428.005.02.01.013.104.074.015.004.012-.004.104-.074.012-.016.004-.017-.017-.427c-.002-.01-.009-.017-.016-.018Zm.264-.113-.014.002-.184.093-.01.01-.003.011.018.43.005.012.008.008.201.092c.012.004.023 0 .029-.008l.004-.014-.034-.614c-.003-.012-.01-.02-.02-.022Zm-.715.002a.023.023 0 0 0-.027.006l-.006.014-.034.614c0 .012.007.02.017.024l.015-.002.201-.093.01-.008.003-.011.018-.43-.003-.012-.01-.01-.184-.092Z"/><path fill="#09244B" d="m8.647 12.732.353.354.354-.354a1 1 0 0 1 1.414 1.415l-.354.353.354.354a1 1 0 0 1-1.414 1.414L9 15.914l-.353.354a1 1 0 0 1-1.415-1.414l.354-.354-.354-.353a1 1 0 0 1 1.415-1.415Zm6 0 .353.354.354-.354a1 1 0 0 1 1.414 1.415l-.354.353.354.354a1 1 0 0 1-1.414 1.414L15 15.914l-.353.354a1 1 0 0 1-1.415-1.414l.354-.354-.354-.353a1 1 0 0 1 1.415-1.415ZM11.5 2a6.502 6.502 0 0 1 6.086 4.212 6.002 6.002 0 0 1 3.214 9.389 1 1 0 0 1-1.6-1.202 4.001 4.001 0 0 0-2.545-6.346 1.01 1.01 0 0 1-.81-.732A4.5 4.5 0 0 0 7.027 9a1.01 1.01 0 0 1-.76 1.09 3.002 3.002 0 0 0-1.97 4.216l.103.193a1 1 0 1 1-1.731 1.002A5 5 0 0 1 5 8.416 6.5 6.5 0 0 1 11.5 2ZM8.768 18.232a1 1 0 0 1 0 1.415L8.414 20l.354.354a1 1 0 1 1-1.414 1.414L7 21.414l-.353.354a1 1 0 0 1-1.415-1.414L5.586 20l-.354-.353a1 1 0 0 1 1.415-1.415l.353.354.354-.354a1 1 0 0 1 1.414 0Zm6 0a1 1 0 0 1 0 1.415l-.354.353.354.354a1 1 0 0 1-1.414 1.414L13 21.414l-.353.354a1 1 0 0 1-1.415-1.414l.354-.354-.354-.353a1 1 0 0 1 1.415-1.415l.353.354.354-.354a1 1 0 0 1 1.414 0Z"/></g></svg>
